symbolic/64x64/apps/atomic.svg

<svg xmlns="http://www.w3.org/2000/svg" width="64" height="64" version="1">
 <rect style="opacity:0.2" width="56" height="56" x="4" y="5" rx="28" ry="28"/>
 <rect style="fill:#3d4963" width="56" height="56" x="4" y="4" rx="28" ry="28"/>
 <path style="opacity:0.2" d="m 32,14.993032 c -3.438882,-0.204424 -6.22223,2.654795 -7.21875,5.734374 -3.250208,8.56943 -6.404815,17.17208 -9.472656,25.808594 L 21.40625,44.399282 C 24.291994,36.95601 27.093016,29.476524 30,22.043812 c 0.463324,-1.140582 1.969982,-2.393692 3.074218,-1.234374 1.434856,1.425514 1.703272,3.556138 2.523438,5.335938 2.320914,6.089008 4.657768,12.171566 6.996094,18.253906 L 48.695312,46.536 C 45.499228,37.586472 42.264048,28.647228 38.832032,19.786 37.675782,17.089239 35.07673,14.810754 32,14.993032 Z m 0,18.007812 a 4,4 0 0 0 -4,4 4,4 0 0 0 4,4 4,4 0 0 0 4,-4 4,4 0 0 0 -4,-4 z"/>
 <circle style="fill:#2698fa" cx="32" cy="36" r="4"/>
 <path style="fill:#2698fa" d="m 32,13.992249 c -3.438882,-0.204423 -6.220296,2.653812 -7.216816,5.733392 -3.250208,8.569429 -6.408702,17.173845 -9.476543,25.810359 2.033463,-0.712762 4.066927,-1.425522 6.100391,-2.138282 2.885744,-7.443272 5.684832,-14.923584 8.591816,-22.356296 0.463324,-1.140583 1.971178,-2.391444 3.075414,-1.232126 1.434856,1.425514 1.70323,3.554054 2.523396,5.333854 2.320914,6.089008 4.656984,12.172228 6.99531,18.254568 2.033464,0.71276 4.066928,1.42552 6.100392,2.138282 C 45.497276,36.586472 42.264148,27.647002 38.832132,18.785775 37.675882,16.089014 35.07673,13.809972 32,13.992249 Z"/>
 <path style="opacity:0.1;fill:#ffffff" d="M 32 4 C 16.488 4 4 16.488 4 32 C 4 32.11345 4.0112805 32.224113 4.0175781 32.335938 C 4.3691213 17.134181 16.710728 5 32 5 C 47.289272 5 59.630879 17.134181 59.982422 32.335938 C 59.98872 32.224113 60 32.11345 60 32 C 60 16.488 47.512 4 32 4 z"/>
 <path style="opacity:0.2;fill:#ffffff" d="M 32.570312 13.986328 C 32.381984 13.978994 32.192296 13.980795 32 13.992188 C 28.561118 13.787764 25.77777 16.646983 24.78125 19.726562 C 21.531042 28.295993 18.376435 36.898642 15.308594 45.535156 L 15.720703 45.390625 C 18.660159 37.139107 21.674852 28.916827 24.78125 20.726562 C 25.77777 17.646984 28.561118 14.787764 32 14.992188 C 35.07673 14.80991 37.675781 17.088395 38.832031 19.785156 C 42.117543 28.268122 45.218128 36.824088 48.28125 45.390625 L 48.695312 45.535156 C 45.499229 36.585628 42.264047 27.646384 38.832031 18.785156 C 37.748047 16.256943 35.395235 14.096333 32.570312 13.986328 z M 32 32 A 4 4 0 0 0 28 36 A 4 4 0 0 0 28.037109 36.498047 A 4 4 0 0 1 32 33 A 4 4 0 0 1 35.964844 36.5 A 4 4 0 0 0 36 36 A 4 4 0 0 0 32 32 z"/>
</svg>

<svg xmlns="http://www.w3.org/2000/svg" width="64" height="64" version="1"><rect style="opacity:.2" width="56" height="56" x="4" y="5" rx="28" ry="28"/><rect style="fill:#3d4963" width="56" height="56" x="4" y="4" rx="28" ry="28"/><path style="opacity:.2" d="M32 14.993c-3.439-.204-6.222 2.655-7.219 5.734-3.25 8.57-6.405 17.172-9.472 25.809l6.097-2.137c2.886-7.443 5.687-14.922 8.594-22.355.463-1.14 1.97-2.394 3.074-1.235 1.435 1.426 1.703 3.557 2.524 5.336A6832.01 6832.01 0 0 0 42.594 44.4l6.101 2.137c-3.196-8.95-6.431-17.889-9.863-26.75-1.156-2.697-3.755-4.975-6.832-4.793zm0 18.008a4 4 0 0 0-4 4 4 4 0 0 0 4 4 4 4 0 0 0 4-4 4 4 0 0 0-4-4z"/><circle style="fill:#2698fa" cx="32" cy="36" r="4"/><path style="fill:#2698fa" d="M32 13.992c-3.439-.204-6.22 2.654-7.217 5.734-3.25 8.57-6.409 17.173-9.476 25.81l6.1-2.138c2.886-7.444 5.685-14.924 8.592-22.357.463-1.14 1.971-2.391 3.075-1.232 1.435 1.426 1.703 3.554 2.524 5.334 2.32 6.09 4.657 12.172 6.995 18.255l6.1 2.138c-3.196-8.95-6.429-17.889-9.86-26.75-1.157-2.697-3.756-4.976-6.833-4.794z"/><path style="opacity:.1;fill:#fff" d="M32 4C16.488 4 4 16.488 4 32c0 .113.011.224.018.336C4.369 17.134 16.71 5 32 5c15.29 0 27.63 12.134 27.982 27.336.007-.112.018-.223.018-.336C60 16.488 47.512 4 32 4z"/><path style="opacity:.2;fill:#fff" d="M32.57 13.986a5.806 5.806 0 0 0-.57.006c-3.439-.204-6.222 2.655-7.219 5.735a1296.59 1296.59 0 0 0-9.472 25.808l.412-.144c2.94-8.252 5.954-16.474 9.06-24.664.997-3.08 3.78-5.94 7.219-5.735 3.077-.182 5.676 2.096 6.832 4.793 3.286 8.483 6.386 17.04 9.45 25.606l.413.144c-3.196-8.95-6.431-17.889-9.863-26.75-1.084-2.528-3.437-4.689-6.262-4.799zM32 32a4 4 0 0 0-4 4 4 4 0 0 0 .037.498A4 4 0 0 1 32 33a4 4 0 0 1 3.965 3.5A4 4 0 0 0 36 36a4 4 0 0 0-4-4z"/></svg>
